build/img/sprite_auto.svg

<svg xmlns="http://www.w3.org/2000/svg" xmlns:xlink="http://www.w3.org/1999/xlink"><symbol id="icon-check"><path d="M16 31c8.284 0 15-6.716 15-15 0-8.284-6.716-15-15-15C7.716 1 1 7.716 1 16c0 8.284 6.716 15 15 15z" stroke="#B70046" stroke-width="1.3" stroke-linecap="round" stroke-linejoin="round"/><path d="M22.111 12.111l-7.639 7.778L11 16.354" stroke="#fff" stroke-width="1.3" stroke-linecap="round" stroke-linejoin="round"/></symbol><symbol id="icon-close"><path d="M19 6.41L17.59 5 12 10.59 6.41 5 5 6.41 10.59 12 5 17.59 6.41 19 12 13.41 17.59 19 19 17.59 13.41 12z" fill="#fff"/><path d="M0 0h24v24H0z" fill="none"/></symbol><symbol id="icon-git"><path d="M1 11V7a6 6 0 1112 0v4" stroke="#fff" stroke-width="1.5" stroke-linecap="round" stroke-linejoin="round"/><path d="M13 11.667A1.334 1.334 0 0111.667 13H11a1.333 1.333 0 01-1.333-1.333v-2A1.333 1.333 0 0111 8.333h2v3.334zm-12 0A1.333 1.333 0 002.333 13H3a1.334 1.334 0 001.333-1.333v-2A1.333 1.333 0 003 8.333H1v3.334z" stroke="#fff" stroke-width="1.5" stroke-linecap="round" stroke-linejoin="round"/></symbol><symbol id="icon-mail"><circle cx="17.5" cy="17.5" r="17.5" fill="#B70046"/><path d="M12.4 12h11.2c.77 0 1.4.63 1.4 1.4v8.4c0 .77-.63 1.4-1.4 1.4H12.4c-.77 0-1.4-.63-1.4-1.4v-8.4c0-.77.63-1.4 1.4-1.4z" fill="#fff"/><path d="M25 13.4l-7 4.9-7-4.9" stroke="#B70046" stroke-linecap="round" stroke-linejoin="round"/></symbol><symbol id="icon-phone"><circle cx="17.5" cy="17.5" r="17.5" fill="#B70046"/><path d="M22.957 19.533a7.382 7.382 0 01-2.318-.37c-.363-.123-.81-.01-1.03.218l-1.462 1.104c-1.695-.905-2.74-1.95-3.632-3.632l1.07-1.423a1.05 1.05 0 00.26-1.065 7.392 7.392 0 01-.371-2.322c0-.575-.468-1.043-1.043-1.043h-2.388c-.575 0-1.043.468-1.043 1.043C11 18.636 16.364 24 22.957 24c.575 0 1.043-.468 1.043-1.043v-2.38c0-.576-.468-1.044-1.043-1.044z" fill="#fff"/></symbol><symbol id="icon-pinmail" viewBox="0 0 18 12">
<path fill-rule="evenodd" clip-rule="evenodd" d="M15.75 0H1.75C1.09427 0 0.519759 0.313297 0.220157 0.77388C0.318349 0.795747 0.413739 0.832731 0.501733 0.885528L8.74995 5.83446L16.9982 0.885528C17.0862 0.832718 17.1816 0.795728 17.2798 0.773863C16.9802 0.313289 16.4057 0 15.75 0ZM17.5 2.41542L9.25173 7.36438C8.95045 7.54514 8.54945 7.54514 8.24817 7.36438L0 2.41547V10.5C0 11.325 0.7875 12 1.75 12H15.75C16.7125 12 17.5 11.325 17.5 10.5V2.41542Z" fill="#535353"/>
</symbol><symbol id="icon-pinmap" viewBox="0 0 13 15">
<g opacity="0.5">
<path fill-rule="evenodd" clip-rule="evenodd" d="M6.13636 15C6.13636 15 12.2727 10.9091 12.2727 6.13636C12.2727 4.5089 11.6262 2.94809 10.4754 1.7973C9.32464 0.646508 7.76383 0 6.13636 0C4.5089 0 2.94809 0.646508 1.7973 1.7973C0.646508 2.94809 0 4.5089 0 6.13636C0 10.9091 6.13636 15 6.13636 15ZM8.82348 6.17647C8.82348 7.6384 7.63835 8.82353 6.17642 8.82353C4.71449 8.82353 3.52936 7.6384 3.52936 6.17647C3.52936 4.71454 4.71449 3.52942 6.17642 3.52942C7.63835 3.52942 8.82348 4.71454 8.82348 6.17647Z" fill="#888888"/>
</g>
</symbol><symbol id="icon-pinwatch" viewBox="0 0 14 14">
<path fill-rule="evenodd" clip-rule="evenodd" d="M14 7C14 10.866 10.866 14 7 14C3.13401 14 0 10.866 0 7C0 3.13401 3.13401 0 7 0C10.866 0 14 3.13401 14 7ZM7.7 2.8C7.7 2.4134 7.3866 2.1 7 2.1C6.6134 2.1 6.3 2.4134 6.3 2.8V7C6.3 7.26514 6.4498 7.50752 6.68695 7.6261L9.48695 9.0261C9.83274 9.19899 10.2532 9.05883 10.4261 8.71305C10.599 8.36726 10.4588 7.94679 10.113 7.7739L7.7 6.56738V2.8Z" fill="#535353"/>
</symbol><symbol id="icon-toggle"><path d="M3 13h2v-2H3v2zm0 4h2v-2H3v2zm0-8h2V7H3v2zm4 4h14v-2H7v2zm0 4h14v-2H7v2zM7 7v2h14V7H7z"/><path d="M0 0h24v24H0z" fill="none"/></symbol></svg>

<svg xmlns="http://www.w3.org/2000/svg" xmlns:xlink="http://www.w3.org/1999/xlink"><symbol id="icon-check"><path d="M16 31c8.284 0 15-6.716 15-15 0-8.284-6.716-15-15-15C7.716 1 1 7.716 1 16c0 8.284 6.716 15 15 15z" stroke="#B70046" stroke-width="1.3" stroke-linecap="round" stroke-linejoin="round"/><path d="M22.111 12.111l-7.639 7.778L11 16.354" stroke="#fff" stroke-width="1.3" stroke-linecap="round" stroke-linejoin="round"/></symbol><symbol id="icon-close"><path d="M19 6.41L17.59 5 12 10.59 6.41 5 5 6.41 10.59 12 5 17.59 6.41 19 12 13.41 17.59 19 19 17.59 13.41 12z" fill="#fff"/><path d="M0 0h24v24H0z" fill="none"/></symbol><symbol id="icon-git"><path d="M1 11V7a6 6 0 1112 0v4" stroke="#fff" stroke-width="1.5" stroke-linecap="round" stroke-linejoin="round"/><path d="M13 11.667A1.334 1.334 0 0111.667 13H11a1.333 1.333 0 01-1.333-1.333v-2A1.333 1.333 0 0111 8.333h2v3.334zm-12 0A1.333 1.333 0 002.333 13H3a1.334 1.334 0 001.333-1.333v-2A1.333 1.333 0 003 8.333H1v3.334z" stroke="#fff" stroke-width="1.5" stroke-linecap="round" stroke-linejoin="round"/></symbol><symbol id="icon-mail"><circle cx="17.5" cy="17.5" r="17.5" fill="#B70046"/><path d="M12.4 12h11.2c.77 0 1.4.63 1.4 1.4v8.4c0 .77-.63 1.4-1.4 1.4H12.4c-.77 0-1.4-.63-1.4-1.4v-8.4c0-.77.63-1.4 1.4-1.4z" fill="#fff"/><path d="M25 13.4l-7 4.9-7-4.9" stroke="#B70046" stroke-linecap="round" stroke-linejoin="round"/></symbol><symbol id="icon-phone"><circle cx="17.5" cy="17.5" r="17.5" fill="#B70046"/><path d="M22.957 19.533a7.382 7.382 0 01-2.318-.37c-.363-.123-.81-.01-1.03.218l-1.462 1.104c-1.695-.905-2.74-1.95-3.632-3.632l1.07-1.423a1.05 1.05 0 00.26-1.065 7.392 7.392 0 01-.371-2.322c0-.575-.468-1.043-1.043-1.043h-2.388c-.575 0-1.043.468-1.043 1.043C11 18.636 16.364 24 22.957 24c.575 0 1.043-.468 1.043-1.043v-2.38c0-.576-.468-1.044-1.043-1.044z" fill="#fff"/></symbol><symbol id="icon-pinmail"><path fill-rule="evenodd" clip-rule="evenodd" d="M15.75 0h-14C1.094 0 .52.313.22.774a.947.947 0 01.282.112L8.75 5.834 16.998.886a.947.947 0 01.282-.112C16.98.314 16.406 0 15.75 0zm1.75 2.415l-8.248 4.95a.996.996 0 01-1.004 0L0 2.414V10.5c0 .825.787 1.5 1.75 1.5h14c.962 0 1.75-.675 1.75-1.5V2.415z" fill="#535353"/></symbol><symbol id="icon-pinmap"><path fill-rule="evenodd" clip-rule="evenodd" d="M6.136 15s6.137-4.09 6.137-8.864A6.136 6.136 0 100 6.136C0 10.91 6.136 15 6.136 15zm2.687-8.824a2.647 2.647 0 11-5.294 0 2.647 2.647 0 015.294 0z" fill="#888" opacity=".5"/></symbol><symbol id="icon-pinwatch"><path fill-rule="evenodd" clip-rule="evenodd" d="M14 7A7 7 0 110 7a7 7 0 0114 0zM7.7 2.8a.7.7 0 10-1.4 0V7a.7.7 0 00.387.626l2.8 1.4a.7.7 0 10.626-1.252L7.7 6.567V2.8z" fill="#535353"/></symbol><symbol id="icon-toggle"><path d="M3 13h2v-2H3v2zm0 4h2v-2H3v2zm0-8h2V7H3v2zm4 4h14v-2H7v2zm0 4h14v-2H7v2zM7 7v2h14V7H7z"/><path d="M0 0h24v24H0z" fill="none"/></symbol></svg>
